Sweet-Rainbow/icons/whatsapp.svg

<?xml version="1.0" encoding="UTF-8" standalone="no"?>
<!-- Generator: Gravit.io -->

<svg
   xmlns:dc="http://purl.org/dc/elements/1.1/"
   xmlns:cc="http://creativecommons.org/ns#"
   xmlns:rdf="http://www.w3.org/1999/02/22-rdf-syntax-ns#"
   xmlns:svg="http://www.w3.org/2000/svg"
   xmlns="http://www.w3.org/2000/svg"
   xmlns:sodipodi="http://sodipodi.sourceforge.net/DTD/sodipodi-0.dtd"
   xmlns:inkscape="http://www.inkscape.org/namespaces/inkscape"
   style="isolation:isolate"
   viewBox="0 0 36 36"
   width="48"
   height="48"
   version="1.1"
   id="svg9"
   sodipodi:docname="whatsapp.svg"
   inkscape:version="0.92.4 (5da689c313, 2019-01-14)">
  <metadata
     id="metadata15">
    <rdf:RDF>
      <cc:Work
         rdf:about="">
        <dc:format>image/svg+xml</dc:format>
        <dc:type
           rdf:resource="http://purl.org/dc/dcmitype/StillImage" />
        <dc:title></dc:title>
      </cc:Work>
    </rdf:RDF>
  </metadata>
  <defs
     id="defs13" />
  <sodipodi:namedview
     pagecolor="#ffffff"
     bordercolor="#666666"
     borderopacity="1"
     objecttolerance="10"
     gridtolerance="10"
     guidetolerance="10"
     inkscape:pageopacity="0"
     inkscape:pageshadow="2"
     inkscape:window-width="640"
     inkscape:window-height="480"
     id="namedview11"
     showgrid="false"
     inkscape:zoom="29.365243"
     inkscape:cx="25.325443"
     inkscape:cy="32"
     inkscape:current-layer="svg9"
     units="px" />
  <linearGradient
     id="_lgradient_5"
     x1="0"
     y1="0.5"
     x2="1"
     y2="0.5"
     gradientTransform="matrix(43.198,0,0,43.886,2.462,2.057)"
     gradientUnits="userSpaceOnUse">
    <stop
       offset="0%"
       stop-opacity="1"
       style="stop-color:rgb(67,233,123)"
       id="stop2" />
    <stop
       offset="97.82608695652173%"
       stop-opacity="1"
       style="stop-color:rgb(56,249,215)"
       id="stop4" />
  </linearGradient>
  <g
     id="g826"
     transform="matrix(0.82031414,0,0,0.82031414,-1.7374257,-1.6873863)">
    <path
       id="path7"
       d="M 14.211,42.573 4.688,45.77 C 2.965,46.349 2.048,45.424 2.643,43.706 L 5.814,34.544 5.628,34.226 c -1.9,-3.272 -2.899,-6.983 -2.899,-10.76 0,-5.676 2.262,-11.122 6.269,-15.14 4.019,-4.007 9.464,-6.269 15.141,-6.269 5.336,0 10.474,1.998 14.415,5.588 v 0 c 0.897,0.818 0.961,2.208 0.143,3.102 v 0 c -0.818,0.894 -2.205,0.955 -3.096,0.137 v 0 C 32.461,8.03 28.377,6.449 24.139,6.449 c -4.513,0 -8.839,1.789 -12.033,4.984 -3.195,3.195 -4.985,7.521 -4.985,12.033 0,3.009 0.79,5.951 2.306,8.553 l 0.889,1.9 -0.889,2.272 -1.142,3.448 4.293,-1.032 1.422,-0.247 2.52,0.9 c 2.41,1.21 5.07,1.84 7.76,1.84 0.69,0 1.37,-0.04 2.06,-0.12 v 0 c 1.093,-0.132 2.085,0.649 2.215,1.745 v 0 c 0.13,1.096 -0.652,2.093 -1.745,2.225 v 0 c -0.84,0.1 -1.68,0.15 -2.53,0.15 -3.32,0 -6.59,-0.78 -9.56,-2.27 z M 40.59,17.47 v 0 c -0.381,-1.038 0.152,-2.187 1.19,-2.565 v 0 c 1.038,-0.378 2.189,0.157 2.57,1.195 v 0 c 0.87,2.38 1.31,4.91 1.31,7.45 0.01,7.07 -3.45,13.7 -9.25,17.74 v 0 c -0.905,0.635 -2.153,0.415 -2.785,-0.49 v 0 c -0.632,-0.905 -0.406,-2.155 0.505,-2.79 v 0 c 4.72,-3.29 7.54,-8.7 7.53,-14.46 0,-2.07 -0.36,-4.13 -1.07,-6.08 z m -6.108,11.536 c -0.023,-0.25 -0.171,-0.468 -0.398,-0.57 -1.531,-0.703 -3.07,-1.406 -4.601,-2.109 -0.172,-0.078 -0.383,-0.039 -0.508,0.109 l -2.078,2.344 c -0.164,0.187 -0.422,0.25 -0.649,0.156 -1.078,-0.445 -2.531,-1.195 -3.999,-2.461 -1.758,-1.507 -2.789,-3.125 -3.367,-4.179 0.289,-0.195 1.078,-0.781 1.429,-1.867 0,-0.008 0.008,-0.016 0.008,-0.016 0.219,-0.672 0.172,-1.398 -0.07,-2.062 -0.414,-1.102 -1.242,-3.235 -1.563,-3.563 -0.054,-0.054 -0.117,-0.109 -0.117,-0.109 -0.234,-0.211 -0.539,-0.328 -0.859,-0.344 -0.11,-0.008 -0.227,-0.008 -0.352,-0.008 -0.359,-0.007 -0.679,-0.007 -0.914,0.024 -0.664,0.094 -1.148,0.539 -1.453,0.914 -0.367,0.445 -0.805,1.109 -1.094,1.984 -0.023,0.078 -0.046,0.149 -0.07,0.227 -0.32,1.109 -0.258,2.297 0.125,3.39 0.359,1.024 0.883,2.242 1.672,3.531 1.336,2.196 2.789,3.555 3.773,4.453 1.11,1.024 2.484,2.281 4.664,3.328 2.016,0.969 3.844,1.328 5.07,1.477 0.5,0.047 1.422,0.054 2.477,-0.344 0.484,-0.188 0.89,-0.414 1.218,-0.656 0.867,-0.617 1.477,-1.547 1.633,-2.594 0,-0.008 0,-0.016 0,-0.023 0.055,-0.399 0.047,-0.742 0.023,-1.032 z"
       style="fill:url(#_lgradient_5);fill-rule:evenodd"
       inkscape:connector-curvature="0" />
  </g>
</svg>

<?xml version="1.0" encoding="UTF-8" standalone="no"?><!-- Generator: Gravit.io --><svg xmlns="http://www.w3.org/2000/svg" xmlns:xlink="http://www.w3.org/1999/xlink" style="isolation:isolate" viewBox="0 0 48 48" width="48pt" height="48pt"><linearGradient id="_lgradient_5" x1="0" y1="0.5" x2="1" y2="0.5" gradientTransform="matrix(43.198,0,0,43.886,2.462,2.057)" gradientUnits="userSpaceOnUse"><stop offset="0%" stop-opacity="1" style="stop-color:rgb(67,233,123)"/><stop offset="97.82608695652173%" stop-opacity="1" style="stop-color:rgb(56,249,215)"/></linearGradient><path d=" M 14.211 42.573 L 4.688 45.77 C 2.965 46.349 2.048 45.424 2.643 43.706 L 5.814 34.544 L 5.628 34.226 C 3.728 30.954 2.729 27.243 2.729 23.466 C 2.729 17.79 4.991 12.344 8.998 8.326 C 13.017 4.319 18.462 2.057 24.139 2.057 C 29.475 2.057 34.613 4.055 38.554 7.645 L 38.554 7.645 C 39.451 8.463 39.515 9.853 38.697 10.747 L 38.697 10.747 C 37.879 11.641 36.492 11.702 35.601 10.884 L 35.601 10.884 C 32.461 8.03 28.377 6.449 24.139 6.449 C 19.626 6.449 15.3 8.238 12.106 11.433 C 8.911 14.628 7.121 18.954 7.121 23.466 C 7.121 26.475 7.911 29.417 9.427 32.019 L 10.316 33.919 L 9.427 36.191 L 8.285 39.639 L 12.578 38.607 L 14 38.36 L 16.52 39.26 C 18.93 40.47 21.59 41.1 24.28 41.1 C 24.97 41.1 25.65 41.06 26.34 40.98 L 26.34 40.98 C 27.433 40.848 28.425 41.629 28.555 42.725 L 28.555 42.725 C 28.685 43.821 27.903 44.818 26.81 44.95 L 26.81 44.95 C 25.97 45.05 25.13 45.1 24.28 45.1 C 20.96 45.1 17.69 44.32 14.72 42.83 L 14.211 42.573 L 14.211 42.573 Z  M 40.59 17.47 L 40.59 17.47 C 40.209 16.432 40.742 15.283 41.78 14.905 L 41.78 14.905 C 42.818 14.527 43.969 15.062 44.35 16.1 L 44.35 16.1 C 45.22 18.48 45.66 21.01 45.66 23.55 C 45.67 30.62 42.21 37.25 36.41 41.29 L 36.41 41.29 C 35.505 41.925 34.257 41.705 33.625 40.8 L 33.625 40.8 C 32.993 39.895 33.219 38.645 34.13 38.01 L 34.13 38.01 C 38.85 34.72 41.67 29.31 41.66 23.55 C 41.66 21.48 41.3 19.42 40.59 17.47 L 40.59 17.47 Z  M 34.482 29.006 C 34.459 28.756 34.311 28.538 34.084 28.436 C 32.553 27.733 31.014 27.03 29.483 26.327 C 29.311 26.249 29.1 26.288 28.975 26.436 L 26.897 28.78 C 26.733 28.967 26.475 29.03 26.248 28.936 C 25.17 28.491 23.717 27.741 22.249 26.475 C 20.491 24.968 19.46 23.35 18.882 22.296 C 19.171 22.101 19.96 21.515 20.311 20.429 C 20.311 20.421 20.319 20.413 20.319 20.413 C 20.538 19.741 20.491 19.015 20.249 18.351 C 19.835 17.249 19.007 15.116 18.686 14.788 C 18.632 14.734 18.569 14.679 18.569 14.679 C 18.335 14.468 18.03 14.351 17.71 14.335 C 17.6 14.327 17.483 14.327 17.358 14.327 C 16.999 14.32 16.679 14.32 16.444 14.351 C 15.78 14.445 15.296 14.89 14.991 15.265 C 14.624 15.71 14.186 16.374 13.897 17.249 C 13.874 17.327 13.851 17.398 13.827 17.476 C 13.507 18.585 13.569 19.773 13.952 20.866 C 14.311 21.89 14.835 23.108 15.624 24.397 C 16.96 26.593 18.413 27.952 19.397 28.85 C 20.507 29.874 21.881 31.131 24.061 32.178 C 26.077 33.147 27.905 33.506 29.131 33.655 C 29.631 33.702 30.553 33.709 31.608 33.311 C 32.092 33.123 32.498 32.897 32.826 32.655 C 33.693 32.038 34.303 31.108 34.459 30.061 C 34.459 30.053 34.459 30.045 34.459 30.038 C 34.514 29.639 34.506 29.296 34.482 29.006 Z " fill-rule="evenodd" fill="url(#_lgradient_5)"/></svg>
